zag2/images/other/thunder.svg

<svg width="50" height="50" viewBox="0 0 50 50" fill="none" xmlns="http://www.w3.org/2000/svg">
<g clip-path="url(#clip0)">
<path d="M43.375 23.8697L41.0721 19.8822C40.8672 19.527 40.4133 19.4054 40.0593 19.6102C39.7041 19.8151 39.5825 20.269 39.7873 20.6242L42.0899 24.6113C42.194 24.7951 42.194 25.0091 42.0899 25.193L33.8463 39.4718C33.7425 39.6507 33.5495 39.7613 33.3428 39.7613H25.209L31.6444 31.3515C31.8935 31.0261 31.8314 30.5614 31.506 30.312C31.1806 30.0629 30.7156 30.125 30.4665 30.4504C21.6248 42.0048 25.5249 36.9083 16.9098 48.1655C16.296 48.7583 15.4194 48.1972 15.4194 47.5491C15.4194 47.2721 14.8388 48.5817 23.4425 30.5553C24.099 29.174 23.0865 27.5948 21.5748 27.5948H13.9484C13.5853 27.5948 13.3606 27.2892 13.3606 27.0061C13.3606 26.7612 12.3081 28.4828 29.385 1.79442C29.9362 0.944503 31.2103 1.5415 30.9708 2.47801C29.1103 7.72933 27.8614 11.2533 25.2644 18.5837C24.7841 19.9295 25.7904 21.3432 27.2148 21.3432H36.2499C36.739 21.3432 37.0094 21.8967 36.7149 22.2851L32.2697 28.0933C32.0202 28.4187 32.0828 28.8845 32.4081 29.134C32.7335 29.3823 33.1993 29.3209 33.4477 28.9955L37.8929 23.1861C38.9366 21.8216 37.9543 19.8597 36.2499 19.8597H27.2148C26.852 19.8597 26.6285 19.5568 26.6285 19.276C26.6285 19.1284 26.4404 19.7071 29.8649 10.0429H33.3428C33.5495 10.0429 33.7425 10.1539 33.8463 10.3329L38.3034 18.0534C38.5082 18.4086 38.9622 18.5303 39.3173 18.3254C39.6713 18.1206 39.793 17.6666 39.5886 17.3115L35.1311 9.5909C34.7633 8.95384 34.0778 8.5594 33.3428 8.5594H30.3902C32.5363 2.50204 32.4871 2.78471 32.4871 2.23273C32.4871 -0.0164196 29.4476 -1.03151 28.1368 0.992187L23.296 8.5594H16.8556C16.1205 8.5594 15.435 8.95384 15.0669 9.5909C6.10808 25.1095 6.54639 24.1257 6.54639 24.9023C6.54639 25.6607 6.36939 25.1484 11.7008 34.3834C11.8385 34.6207 12.0876 34.7542 12.344 34.7542C12.9112 34.7542 13.2717 34.1362 12.986 33.6414C7.72284 24.5254 8.03031 25.1274 8.03031 24.9023C8.03031 24.6712 7.54851 25.581 16.3521 10.3329C16.4558 10.1539 16.6489 10.0429 16.8556 10.0429H22.3465L12.2055 25.8945C11.3224 27.2739 12.3207 29.0787 13.9484 29.0787H21.5748C22.0024 29.0787 22.2881 29.5219 22.1031 29.9164L17.4046 39.7613C16.9041 39.7613 16.5585 39.8273 16.3521 39.4718L14.4695 36.2114C14.2647 35.8562 13.8107 35.7346 13.4567 35.9394C13.1016 36.1443 12.9799 36.5982 13.1847 36.9534L15.0669 40.2134C15.4095 40.805 16.0244 41.1877 16.6992 41.2392L14.2212 46.4302C13.3285 48.1228 14.6622 49.9023 16.3292 49.9023C17.1612 49.9023 17.8303 49.4102 18.0584 49.1062L24.0734 41.2453H33.3428C34.0778 41.2453 34.7633 40.8504 35.1311 40.2134L43.375 25.9338C43.7393 25.3044 43.7489 24.517 43.375 23.8697Z" fill="#FF4900"/>
</g>
<defs>
<clipPath id="clip0">
<rect width="50" height="50" fill="white"/>
</clipPath>
</defs>
</svg>

<svg width="50" height="50" fill="none" xmlns="http://www.w3.org/2000/svg"><g clip-path="url(#clip0)"><path d="M43.375 23.87l-2.303-3.988a.741.741 0 10-1.285.742l2.303 3.987a.58.58 0 010 .582l-8.244 14.279a.584.584 0 01-.503.29h-8.134l6.435-8.41a.741.741 0 10-1.177-.902L16.91 48.166c-.614.592-1.49.031-1.49-.617 0-.277-.581 1.033 8.022-16.994.657-1.381-.355-2.96-1.867-2.96h-7.627a.59.59 0 01-.587-.589c0-.245-1.053 1.477 16.024-25.212.551-.85 1.825-.252 1.586.684l-5.707 16.106c-.48 1.346.526 2.76 1.95 2.76h9.036c.489 0 .76.553.465.941l-4.445 5.808a.742.742 0 001.178.902l4.445-5.809c1.044-1.364.061-3.326-1.643-3.326h-9.035a.586.586 0 01-.587-.584c0-.148-.188.431 3.237-9.233h3.478c.206 0 .4.11.503.29l4.457 7.72a.742.742 0 101.286-.742l-4.458-7.72a2.07 2.07 0 00-1.788-1.032H30.39c2.146-6.057 2.097-5.774 2.097-6.326 0-2.25-3.04-3.265-4.35-1.24l-4.841 7.566h-6.44a2.07 2.07 0 00-1.79 1.032c-8.958 15.519-8.52 14.535-8.52 15.311 0 .759-.177.246 5.155 9.481a.743.743 0 001.285-.742c-5.263-9.116-4.956-8.514-4.956-8.739 0-.23-.481.679 8.322-14.57a.584.584 0 01.504-.29h5.49l-10.14 15.853c-.884 1.379.115 3.184 1.742 3.184h7.627c.427 0 .713.443.528.837l-4.698 9.845c-.5 0-.847.066-1.053-.29l-1.883-3.26a.741.741 0 10-1.284.742l1.882 3.26a2.07 2.07 0 001.632 1.026l-2.478 5.191c-.893 1.693.441 3.472 2.108 3.472.832 0 1.501-.492 1.73-.796l6.014-7.86h9.27a2.07 2.07 0 001.788-1.033l8.244-14.28a2.062 2.062 0 000-2.063z" fill="#FF4900"/></g><defs><clipPath id="clip0"><path fill="#fff" d="M0 0h50v50H0z"/></clipPath></defs></svg>
